src/images/logos/bitcore.svg

<?xml version="1.0" encoding="UTF-8" standalone="no"?>
<svg width="585px" height="233px" viewBox="0 0 585 233" version="1.1" xmlns="http://www.w3.org/2000/svg" xmlns:xlink="http://www.w3.org/1999/xlink" xmlns:sketch="http://www.bohemiancoding.com/sketch/ns">
    <!-- Generator: Sketch 3.3.1 (12002) - http://www.bohemiancoding.com/sketch -->
    <title>bitcore</title>
    <desc>Created with Sketch.</desc>
    <defs></defs>
    <g id="Page-1" stroke="none" stroke-width="1" fill="none" fill-rule="evenodd" sketch:type="MSPage">
        <g id="bitcore" sketch:type="MSArtboardGroup" fill="#5C5E63">
            <path d="M177.950494,101.783454 C180.863573,101.783454 183.381213,102.299285 185.505169,103.330946 C187.628246,104.361728 189.388396,105.758073 190.783863,107.517345 C192.179329,109.276616 193.21099,111.339938 193.877966,113.706431 C194.545822,116.072924 194.878871,118.62132 194.878871,121.351618 C194.878871,125.538017 194.105565,129.496818 192.558073,133.228021 C191.011461,136.960102 188.902444,140.206231 186.232779,142.967286 C183.563115,145.727462 180.408377,147.912052 176.767686,149.520178 C173.126996,151.127425 169.183134,151.931487 164.9361,151.931487 C164.389514,151.931487 163.434305,151.916548 162.068716,151.885792 C160.704006,151.855914 159.141576,151.719707 157.381425,151.476291 C155.622154,151.233754 153.756552,150.869949 151.784621,150.384875 C149.81269,149.898922 147.947089,149.231945 146.186938,148.382187 L161.932509,82.2152907 L176.039197,80.0315792 L170.396697,103.512848 C171.610261,102.966261 172.823824,102.541822 174.037388,102.238651 C175.250952,101.935479 176.555027,101.783454 177.950494,101.783454 L177.950494,101.783454 Z M166.118908,140.737 C168.242864,140.737 170.244672,140.22117 172.126091,139.189509 C174.006632,138.158727 175.629696,136.778199 176.995285,135.048805 C178.359994,133.319411 179.437351,131.362419 180.226474,129.178708 C181.01472,126.994118 181.409282,124.719015 181.409282,122.352522 C181.409282,119.440321 180.924208,117.16434 179.953181,115.526337 C178.982154,113.888334 177.192126,113.069332 174.583096,113.069332 C173.734217,113.069332 172.626983,113.220478 171.261394,113.52365 C169.895806,113.8277 168.667303,114.464798 167.575008,115.435825 L161.568703,140.373195 C161.932509,140.433829 162.250619,140.494463 162.523912,140.555098 C162.797206,140.615732 163.085438,140.661427 163.388609,140.691305 C163.69178,140.722061 164.056465,140.737 164.480904,140.737 L166.118908,140.737 L166.118908,140.737 Z M211.99003,150.65729 L198.519562,150.65729 L209.89683,102.784359 L223.456931,102.784359 L211.99003,150.65729 L211.99003,150.65729 Z M218.542921,96.9599565 C216.661502,96.9599565 214.962865,96.3984307 213.44613,95.2762579 C211.929395,94.1532063 211.171028,92.4396299 211.171028,90.1337712 C211.171028,88.8595733 211.428504,87.6609486 211.944334,86.5387758 C212.460165,85.4166029 213.14208,84.4455763 213.991838,83.6265746 C214.841596,82.807573 215.827562,82.1546565 216.949735,81.6695825 C218.072786,81.1845086 219.270532,80.9410929 220.54473,80.9410929 C222.426149,80.9410929 224.124787,81.5026187 225.641522,82.6247915 C227.158256,83.7478431 227.916624,85.4614195 227.916624,87.7672782 C227.916624,89.0414761 227.659148,90.2401008 227.143317,91.3622736 C226.627487,92.4853252 225.944693,93.4554731 225.095813,94.2744748 C224.246055,95.0943552 223.26009,95.7463929 222.137917,96.2314669 C221.014865,96.7174196 219.817119,96.9599565 218.542921,96.9599565 L218.542921,96.9599565 Z M237.291205,90.8622608 L251.397893,88.6776706 L247.939984,102.784359 L263.047576,102.784359 L260.317278,113.888334 L245.300197,113.888334 L241.295701,130.634808 C240.931896,132.030275 240.704297,133.33435 240.613785,134.547914 C240.522395,135.761477 240.673541,136.808077 241.068103,137.687713 C241.462665,138.568228 242.145459,139.250143 243.116486,139.736096 C244.086634,140.22117 245.421466,140.463707 247.120982,140.463707 C248.577083,140.463707 249.987488,140.327499 251.353076,140.054206 C252.717786,139.781791 254.098314,139.402168 255.49378,138.917094 L256.494684,149.29258 C254.674778,149.959556 252.702847,150.536021 250.578891,151.021974 C248.455814,151.507048 245.937296,151.749585 243.025095,151.749585 C238.838696,151.749585 235.592567,151.127425 233.286709,149.883983 C230.98085,148.639663 229.342847,146.941026 228.37182,144.787192 C227.401672,142.633358 226.976354,140.160536 227.097622,137.369603 C227.218891,134.57867 227.644209,131.635713 228.37182,128.541609 L237.291205,90.8622608 L237.291205,90.8622608 Z M263.502772,131.545201 C263.502772,127.418557 264.170628,123.53533 265.50546,119.894639 C266.840292,116.254827 268.751589,113.069332 271.23935,110.339034 C273.727112,107.608735 276.745642,105.454023 280.294942,103.876654 C283.844242,102.299285 287.803922,101.510161 292.172224,101.510161 C294.902522,101.510161 297.344588,101.768516 299.498422,102.284346 C301.653134,102.800176 303.609248,103.482092 305.369398,104.33185 L300.727803,114.889238 C299.514239,114.404164 298.25498,113.963907 296.950905,113.569345 C295.645951,113.175662 294.053643,112.977941 292.172224,112.977941 C287.622019,112.977941 284.041963,114.509615 281.432933,117.573841 C278.823903,120.638067 277.518949,124.809527 277.518949,130.088221 C277.518949,133.183204 278.186804,135.685904 279.521636,137.597201 C280.856468,139.508498 283.313473,140.463707 286.89353,140.463707 C288.652801,140.463707 290.352318,140.281804 291.990321,139.917999 C293.628324,139.554193 295.084425,139.098997 296.358623,138.55241 L297.359527,149.383092 C295.660889,150.050947 293.795288,150.642351 291.762723,151.158181 C289.730158,151.674012 287.257335,151.931487 284.345134,151.931487 C280.583175,151.931487 277.39768,151.385779 274.78865,150.293484 C272.17962,149.201189 270.025786,147.73015 268.327149,145.879487 C266.627633,144.028825 265.39913,141.859173 264.640763,139.371412 C263.882395,136.884529 263.502772,134.275499 263.502772,131.545201 L263.502772,131.545201 Z M323.844388,151.931487 C320.629016,151.931487 317.838083,151.446413 315.47159,150.475387 C313.105097,149.50436 311.148105,148.13965 309.601492,146.3795 C308.054001,144.620228 306.886133,142.541967 306.097009,140.145597 C305.308764,137.749226 304.914202,135.094501 304.914202,132.181421 C304.914202,128.541609 305.505605,124.900918 306.689291,121.260227 C307.872098,117.619537 309.616431,114.34353 311.92229,111.43045 C314.228149,108.518249 317.048959,106.136817 320.386479,104.286155 C323.723119,102.435492 327.545713,101.510161 331.854259,101.510161 C335.008997,101.510161 337.784991,101.996114 340.181362,102.966261 C342.578611,103.937288 344.550542,105.302877 346.097155,107.062148 C347.644646,108.82142 348.812514,110.899681 349.601638,113.29693 C350.389883,115.693301 350.784445,118.348026 350.784445,121.260227 C350.784445,124.900918 350.207981,128.541609 349.055051,132.181421 C347.903001,135.822112 346.203484,139.098997 343.95826,142.011198 C341.713914,144.923399 338.907164,147.304831 335.539767,149.155494 C332.172369,151.006156 328.274203,151.931487 323.844388,151.931487 L323.844388,151.931487 Z M330.580061,112.977941 C328.577374,112.977941 326.818102,113.554406 325.301367,114.707335 C323.783754,115.860265 322.510435,117.316365 321.478774,119.075637 C320.447113,120.835788 319.673807,122.762023 319.157976,124.855223 C318.642146,126.948422 318.383791,128.935292 318.383791,130.816711 C318.383791,133.910815 318.869744,136.292247 319.839892,137.961007 C320.810918,139.629766 322.57019,140.463707 325.118586,140.463707 C327.121273,140.463707 328.880545,139.887242 330.39728,138.735192 C331.914893,137.582262 333.189091,136.126162 334.219873,134.366011 C335.251534,132.606739 336.025719,130.680504 336.540671,128.586426 C337.056501,126.493226 337.314856,124.506356 337.314856,122.625816 C337.314856,119.530833 336.828903,117.149402 335.858755,115.480642 C334.887729,113.811882 333.128457,112.977941 330.580061,112.977941 L330.580061,112.977941 Z M391.012189,114.434042 C389.798625,114.130871 388.600879,113.842638 387.417194,113.569345 C386.234386,113.29693 384.490054,113.159844 382.184195,113.159844 C381.334437,113.159844 380.394167,113.236296 379.362506,113.387442 C378.330845,113.539467 377.481965,113.706431 376.81411,113.888334 L367.986116,150.65729 L354.425136,150.65729 L365.34633,105.332754 C367.956238,104.483875 370.883378,103.679812 374.129507,102.921445 C377.375636,102.163077 381.031265,101.783454 385.096396,101.783454 C386.613131,101.783454 388.296829,101.919662 390.147492,102.192955 C391.998154,102.466249 393.621219,102.905627 395.016685,103.512848 L391.012189,114.434042 L391.012189,114.434042 Z M394.107172,131.909006 C394.107172,128.025778 394.789087,124.263819 396.154676,120.623128 C397.520264,116.982438 399.4465,113.752126 401.934261,110.930437 C404.422023,108.108748 407.440553,105.833646 410.989853,104.104252 C414.539153,102.374858 418.468077,101.510161 422.775744,101.510161 C424.8997,101.510161 426.871631,101.814211 428.691537,102.420553 C430.512322,103.026896 432.10463,103.90741 433.470218,105.059461 C434.834928,106.21239 435.897345,107.623674 436.655713,109.292434 C437.41408,110.960315 437.793703,112.856673 437.793703,114.980629 C437.793703,118.377904 437.034457,121.260227 435.517722,123.62672 C434.000988,125.993213 431.892849,127.919449 429.192429,129.406306 C426.492008,130.892284 423.291574,131.96964 419.590249,132.636617 C415.889803,133.304473 411.85455,133.6384 407.48537,133.6384 C407.910688,136.186796 408.83602,137.991763 410.261364,139.053302 C411.687587,140.11484 413.94775,140.646488 417.041854,140.646488 C418.983907,140.646488 420.955838,140.479524 422.958526,140.145597 C424.960334,139.811669 426.841753,139.310777 428.601025,138.643801 L429.601929,149.29258 C427.903292,149.959556 425.733641,150.566778 423.094733,151.112486 C420.454946,151.659073 417.588441,151.931487 414.493458,151.931487 C410.731499,151.931487 407.561822,151.400718 404.98267,150.339179 C402.404396,149.276762 400.311197,147.836479 398.703071,146.015694 C397.094946,144.195788 395.927078,142.071832 395.199467,139.644705 C394.470977,137.217578 394.107172,134.639305 394.107172,131.909006 L394.107172,131.909006 Z M420.592033,112.250331 C417.49705,112.250331 414.78169,113.357565 412.445954,115.572032 C410.110218,117.7865 408.577665,120.714519 407.850054,124.354331 C411.612013,124.233063 414.645483,123.914953 416.951342,123.399122 C419.2572,122.883292 421.047229,122.261132 422.320548,121.533521 C423.594746,120.805031 424.444504,120.016786 424.869822,119.167028 C425.294262,118.31727 425.506921,117.46839 425.506921,116.618632 C425.506921,113.706431 423.868039,112.250331 420.592033,112.250331 L420.592033,112.250331 Z" id="Imported-Layers-Copy" sketch:type="MSShapeGroup"></path>
        </g>
    </g>
</svg>

<svg width="585" height="233" viewBox="0 0 585 233" xmlns="http://www.w3.org/2000/svg"><title>bitcore</title><path d="M177.95 101.783c2.914 0 5.43.516 7.555 1.548 2.123 1.032 3.883 2.428 5.28 4.187 1.394 1.76 2.426 3.823 3.093 6.19.668 2.366 1 4.914 1 7.645 0 4.186-.772 8.145-2.32 11.876-1.547 3.732-3.656 6.978-6.325 9.74-2.67 2.76-5.825 4.944-9.465 6.552-3.64 1.607-7.585 2.41-11.832 2.41-.546 0-1.502-.013-2.867-.044-1.366-.03-2.928-.166-4.69-.41a54.895 54.895 0 0 1-5.595-1.09 28.54 28.54 0 0 1-5.598-2.004l15.746-66.167 14.106-2.183-5.643 23.48a21.624 21.624 0 0 1 3.64-1.273c1.214-.305 2.518-.457 3.913-.457zm-11.83 38.954c2.123 0 4.125-.516 6.006-1.547a15.89 15.89 0 0 0 4.87-4.14c1.364-1.73 2.44-3.688 3.23-5.87a19.958 19.958 0 0 0 1.183-6.827c0-2.913-.486-5.19-1.457-6.827-.97-1.638-2.76-2.457-5.37-2.457-.85 0-1.956.15-3.322.454-1.364.304-2.593.94-3.685 1.912l-6.006 24.937c.363.06.68.12.954.182.273.06.56.106.865.136.302.032.666.047 1.09.047h1.64zm45.87 9.92h-13.47l11.377-47.873h13.56l-11.467 47.873zm6.553-53.697c-1.88 0-3.58-.562-5.097-1.684-1.517-1.123-2.275-2.836-2.275-5.142 0-1.274.26-2.473.774-3.595a9.522 9.522 0 0 1 2.048-2.913 9.858 9.858 0 0 1 2.958-1.957 8.967 8.967 0 0 1 3.595-.73c1.88 0 3.58.563 5.097 1.685 1.516 1.123 2.275 2.836 2.275 5.142a8.505 8.505 0 0 1-.774 3.595 9.526 9.526 0 0 1-2.047 2.912 9.84 9.84 0 0 1-2.958 1.957 8.952 8.952 0 0 1-3.595.73zm18.748-6.098l14.108-2.184-3.458 14.106h15.108l-2.73 11.104H245.3l-4.004 16.747c-.364 1.395-.592 2.7-.682 3.913-.092 1.213.06 2.26.454 3.14.395.88 1.077 1.562 2.048 2.048.97.485 2.305.728 4.005.728 1.457 0 2.867-.137 4.233-.41a31.24 31.24 0 0 0 4.14-1.137l1.002 10.376a48.884 48.884 0 0 1-5.916 1.73c-2.124.484-4.643.727-7.555.727-4.186 0-7.432-.623-9.738-1.866-2.306-1.244-3.944-2.943-4.915-5.097-.97-2.154-1.396-4.626-1.274-7.417.12-2.79.546-5.734 1.274-8.828l8.92-37.68zm26.213 40.683c0-4.126.668-8.01 2.002-11.65 1.335-3.64 3.247-6.826 5.734-9.556 2.487-2.73 5.506-4.886 9.055-6.463 3.55-1.578 7.51-2.367 11.877-2.367 2.73 0 5.173.26 7.326.774 2.155.516 4.11 1.198 5.87 2.048l-4.64 10.557a46.29 46.29 0 0 0-3.777-1.32c-1.304-.394-2.896-.592-4.778-.592-4.55 0-8.13 1.532-10.74 4.596-2.608 3.064-3.913 7.236-3.913 12.514 0 3.095.667 5.598 2.002 7.51 1.334 1.91 3.79 2.866 7.372 2.866 1.76 0 3.458-.182 5.096-.546 1.638-.364 3.094-.82 4.37-1.366l1 10.83a46.73 46.73 0 0 1-5.597 1.776c-2.033.516-4.506.773-7.418.773-3.762 0-6.947-.544-9.556-1.637-2.61-1.092-4.764-2.563-6.463-4.414-1.7-1.85-2.928-4.02-3.686-6.51-.758-2.485-1.137-5.095-1.137-7.825zm60.34 20.386c-3.214 0-6.005-.484-8.37-1.455-2.368-.97-4.325-2.335-5.872-4.095-1.546-1.76-2.714-3.838-3.503-6.234-.788-2.397-1.183-5.05-1.183-7.965 0-3.638.592-7.28 1.775-10.92 1.182-3.64 2.926-6.916 5.232-9.83 2.306-2.912 5.127-5.293 8.464-7.144 3.337-1.85 7.16-2.776 11.468-2.776 3.155 0 5.93.486 8.327 1.456 2.4.97 4.37 2.337 5.917 4.096 1.548 1.76 2.716 3.838 3.505 6.235.788 2.396 1.182 5.05 1.182 7.963 0 3.64-.576 7.282-1.73 10.92-1.15 3.642-2.85 6.92-5.096 9.83-2.244 2.913-5.05 5.295-8.418 7.145-3.368 1.85-7.266 2.776-11.696 2.776zm6.737-38.952c-2.003 0-3.762.576-5.28 1.73-1.516 1.152-2.79 2.608-3.82 4.368-1.033 1.76-1.806 3.686-2.322 5.78-.516 2.092-.774 4.08-.774 5.96 0 3.095.486 5.476 1.456 7.145.97 1.67 2.73 2.504 5.28 2.504 2 0 3.76-.577 5.277-1.73 1.518-1.152 2.792-2.608 3.823-4.368 1.032-1.76 1.806-3.685 2.32-5.78.517-2.093.775-4.08.775-5.96 0-3.095-.486-5.477-1.456-7.145-.972-1.668-2.732-2.502-5.28-2.502zm60.432 1.456c-1.213-.303-2.41-.59-3.595-.865-1.183-.273-2.927-.41-5.233-.41-.85 0-1.79.076-2.82.227-1.033.152-1.882.32-2.55.5l-8.828 36.77h-13.56l10.92-45.324c2.61-.85 5.537-1.653 8.784-2.412 3.246-.757 6.9-1.137 10.966-1.137 1.517 0 3.2.137 5.05.41 1.852.273 3.475.713 4.87 1.32l-4.004 10.92zm3.095 17.475c0-3.884.682-7.646 2.048-11.287 1.365-3.64 3.292-6.87 5.78-9.693 2.487-2.82 5.506-5.096 9.055-6.826 3.55-1.73 7.478-2.594 11.786-2.594 2.124 0 4.096.304 5.916.91 1.82.607 3.413 1.487 4.778 2.64a11.92 11.92 0 0 1 3.186 4.232c.758 1.668 1.138 3.565 1.138 5.69 0 3.396-.76 6.278-2.276 8.645-1.517 2.366-3.625 4.292-6.326 5.78-2.7 1.485-5.9 2.563-9.602 3.23-3.7.667-7.735 1-12.105 1 .426 2.55 1.35 4.355 2.776 5.416 1.428 1.062 3.688 1.593 6.782 1.593a35.93 35.93 0 0 0 5.917-.5 29.64 29.64 0 0 0 5.64-1.502l1.002 10.65c-1.7.666-3.868 1.273-6.507 1.818-2.64.547-5.507.82-8.602.82-3.762 0-6.93-.53-9.51-1.593s-4.672-2.504-6.28-4.324c-1.608-1.82-2.776-3.944-3.504-6.37-.73-2.428-1.093-5.007-1.093-7.737zm26.485-19.66c-3.095 0-5.81 1.108-8.146 3.322-2.336 2.215-3.868 5.143-4.596 8.782 3.762-.12 6.795-.44 9.1-.955 2.307-.517 4.097-1.14 5.37-1.866 1.275-.73 2.125-1.517 2.55-2.367.424-.85.637-1.7.637-2.548 0-2.914-1.64-4.37-4.915-4.37z" fill="#5C5E63" fill-rule="evenodd"/></svg>
